X: 8
P: Rondeau
M: 2/4
L: 1/8
K: A
V: 1
|:\
{d}c>deA | GABA | dc {c}BA/G/ | AB{A}GE |\
{d}c>deA | GABA | dcBA | (c/B/)A/G/ {G}A2 :|
a>gfe | ^defB | ba/g/ {b}ag/f/ | {a}gf/e/ fB |\
a>gfe | ^defB | ag/f/ g/e/f/g/ | B^d "_Da Capo"e2 |]
EEFE | FGAA | Bc (d/c/B/)A/ | (c/B/A/)G/ AA |\
EEFE | FGAA | Bc (d/c/)B/A/ | (c/B/)A/G/ "_Da Capo"A2 |]
V: 2 clef=bass middle=d
|:\
fgaf | beB2 | GeF^d | eEB2 |\
fgaf | be Bb | c'^d'e'a | bB"_Da Capo"e2 |]
acdc | dBcA | eadf | eEA2 |\
acdc | dBcA | eadf | eE "_Da Capo"A2 |]


